X:1723
T:Boniest(!) Lass In The World. BF14.05
M:4/4
Q:140
S:MS14,Browne "D",early 19thC,Troutbeck,W'morland
R:Hornpipe
O:England
A:Lake District
N:Okay,it's not actually a very obvious word to spell!. Bony,Bonny, vive
N:la difference!.CGP
Z:vmp.Chris Partington
K:G
GA|BDEG cBAG|E2DEG2g2|degd  e4d2 ef|!
gfed efgB|cBAG E2D-E|G2g2decd|B2AGG2::!
ef|gfed efge|agfe fgaf|gfga bgab|e4d2ga|!
 bage degB| cBAGE2DE| G2g2decd|B2AG G2|]


